images/job-board.svg

<svg enable-background="new 0 0 32 32" height="512" viewBox="0 0 32 32" width="512" xmlns="http://www.w3.org/2000/svg"><g fill="#a2abbd"><path d="m29 0h-22c-1.657 0-3 1.342-3 3v2h-1c-1.657 0-3 1.342-3 3v20c0 2.209 1.791 4 4 4h24c2.209 0 4-1.791 4-4v-25c0-1.658-1.344-3-3-3zm1 28c0 1.102-.898 2-2 2h-24c-1.103 0-2-.898-2-2v-20c0-.552.448-1 1-1h1v20c0 .553.447 1 1 1s1-.447 1-1v-24c0-.552.448-1 1-1h22c.551 0 1 .448 1 1z"/><path d="m19.498 13.005h8c.277 0 .5-.224.5-.5s-.223-.5-.5-.5h-8c-.275 0-.5.224-.5.5s.225.5.5.5z"/><path d="m19.498 10.005h8c.277 0 .5-.224.5-.5s-.223-.5-.5-.5h-8c-.275 0-.5.224-.5.5s.225.5.5.5z"/><path d="m19.498 7.005h8c.277 0 .5-.224.5-.5s-.223-.5-.5-.5h-8c-.275 0-.5.224-.5.5s.225.5.5.5z"/><path d="m16.5 27.004h-8c-.276 0-.5.225-.5.5 0 .277.224.5.5.5h8c.275 0 .5-.223.5-.5 0-.275-.224-.5-.5-.5z"/><path d="m16.5 24.004h-8c-.276 0-.5.225-.5.5 0 .277.224.5.5.5h8c.275 0 .5-.223.5-.5 0-.275-.224-.5-.5-.5z"/><path d="m16.5 21.004h-8c-.276 0-.5.225-.5.5 0 .277.224.5.5.5h8c.275 0 .5-.223.5-.5 0-.275-.224-.5-.5-.5z"/><path d="m27.5 27.004h-8c-.277 0-.5.225-.5.5 0 .277.223.5.5.5h8c.275 0 .5-.223.5-.5 0-.275-.225-.5-.5-.5z"/><path d="m27.5 24.004h-8c-.277 0-.5.225-.5.5 0 .277.223.5.5.5h8c.275 0 .5-.223.5-.5 0-.275-.225-.5-.5-.5z"/><path d="m27.5 21.004h-8c-.277 0-.5.225-.5.5 0 .277.223.5.5.5h8c.275 0 .5-.223.5-.5 0-.275-.225-.5-.5-.5z"/><path d="m27.5 15.004h-19c-.276 0-.5.224-.5.5s.224.5.5.5h19c.275 0 .5-.224.5-.5s-.225-.5-.5-.5z"/><path d="m27.5 18.004h-19c-.276 0-.5.225-.5.5 0 .277.224.5.5.5h19c.275 0 .5-.223.5-.5 0-.275-.225-.5-.5-.5z"/><path d="m9 13h7c.553 0 1-.447 1-1v-6.996c0-.553-.447-1-1-1h-7c-.553 0-1 .447-1 1v6.996c0 .552.447 1 1 1zm1-7h5v5h-5z"/></g></svg>

<?xml version="1.0" encoding="iso-8859-1"?>
<!-- Generator: Adobe Illustrator 18.1.1, SVG Export Plug-In . SVG Version: 6.00 Build 0)  -->
<svg xmlns="http://www.w3.org/2000/svg" xmlns:xlink="http://www.w3.org/1999/xlink" version="1.1" id="Capa_1" x="0px" y="0px" viewBox="0 0 32 32" style="enable-background:new 0 0 32 32;" xml:space="preserve" width="512px" height="512px">
<g>
	<g id="news">
		<path d="M29,0H7C5.343,0,4,1.342,4,3v2H3C1.343,5,0,6.342,0,8v20c0,2.209,1.791,4,4,4h24    c2.209,0,4-1.791,4-4V3C32,1.342,30.656,0,29,0z M30,28c0,1.102-0.898,2-2,2H4c-1.103,0-2-0.898-2-2V8c0-0.552,0.448-1,1-1h1v20    c0,0.553,0.447,1,1,1s1-0.447,1-1V3c0-0.552,0.448-1,1-1h22c0.551,0,1,0.448,1,1V28z" fill="#a2abbd"/>
		<path d="M19.498,13.005h8c0.277,0,0.5-0.224,0.5-0.5s-0.223-0.5-0.5-0.5h-8c-0.275,0-0.5,0.224-0.5,0.5    S19.223,13.005,19.498,13.005z" fill="#a2abbd"/>
		<path d="M19.498,10.005h8c0.277,0,0.5-0.224,0.5-0.5s-0.223-0.5-0.5-0.5h-8c-0.275,0-0.5,0.224-0.5,0.5    S19.223,10.005,19.498,10.005z" fill="#a2abbd"/>
		<path d="M19.498,7.005h8c0.277,0,0.5-0.224,0.5-0.5s-0.223-0.5-0.5-0.5h-8c-0.275,0-0.5,0.224-0.5,0.5    S19.223,7.005,19.498,7.005z" fill="#a2abbd"/>
		<path d="M16.5,27.004h-8c-0.276,0-0.5,0.225-0.5,0.5c0,0.277,0.224,0.5,0.5,0.5h8    c0.275,0,0.5-0.223,0.5-0.5C17,27.229,16.776,27.004,16.5,27.004z" fill="#a2abbd"/>
		<path d="M16.5,24.004h-8c-0.276,0-0.5,0.225-0.5,0.5c0,0.277,0.224,0.5,0.5,0.5h8    c0.275,0,0.5-0.223,0.5-0.5C17,24.229,16.776,24.004,16.5,24.004z" fill="#a2abbd"/>
		<path d="M16.5,21.004h-8c-0.276,0-0.5,0.225-0.5,0.5c0,0.277,0.224,0.5,0.5,0.5h8    c0.275,0,0.5-0.223,0.5-0.5C17,21.229,16.776,21.004,16.5,21.004z" fill="#a2abbd"/>
		<path d="M27.5,27.004h-8c-0.277,0-0.5,0.225-0.5,0.5c0,0.277,0.223,0.5,0.5,0.5h8    c0.275,0,0.5-0.223,0.5-0.5C28,27.229,27.775,27.004,27.5,27.004z" fill="#a2abbd"/>
		<path d="M27.5,24.004h-8c-0.277,0-0.5,0.225-0.5,0.5c0,0.277,0.223,0.5,0.5,0.5h8    c0.275,0,0.5-0.223,0.5-0.5C28,24.229,27.775,24.004,27.5,24.004z" fill="#a2abbd"/>
		<path d="M27.5,21.004h-8c-0.277,0-0.5,0.225-0.5,0.5c0,0.277,0.223,0.5,0.5,0.5h8    c0.275,0,0.5-0.223,0.5-0.5C28,21.229,27.775,21.004,27.5,21.004z" fill="#a2abbd"/>
		<path d="M27.5,15.004h-19c-0.276,0-0.5,0.224-0.5,0.5s0.224,0.5,0.5,0.5h19c0.275,0,0.5-0.224,0.5-0.5    S27.775,15.004,27.5,15.004z" fill="#a2abbd"/>
		<path d="M27.5,18.004h-19c-0.276,0-0.5,0.225-0.5,0.5c0,0.277,0.224,0.5,0.5,0.5h19    c0.275,0,0.5-0.223,0.5-0.5C28,18.229,27.775,18.004,27.5,18.004z" fill="#a2abbd"/>
		<path d="M9,13h7c0.553,0,1-0.447,1-1V5.004c0-0.553-0.447-1-1-1H9c-0.553,0-1,0.447-1,1V12    C8,12.552,8.447,13,9,13z M10,6h5v5h-5V6z" fill="#a2abbd"/>
	</g>
</g>
<g>
</g>
<g>
</g>
<g>
</g>
<g>
</g>
<g>
</g>
<g>
</g>
<g>
</g>
<g>
</g>
<g>
</g>
<g>
</g>
<g>
</g>
<g>
</g>
<g>
</g>
<g>
</g>
<g>
</g>
</svg>
